X:1
T:Pavana alla ferrarese
T:Pavana alla ferrarese
T:Dalza, Joan Ambrosio
C:Dalza, Joan Ambrosio
L:1/8
M:4/4
K:C
V:1 tab stafflines=6 strings=G2,C3,F3,A3,D4,G4 nostems nm="Lute" snm="Lt."
V:1
 [!4!F,!3!C!2!F]6 !4!F,2 | [!3!C!2!F]4 [!4!_B,!2!F!1!d]4 | [!4!A,!2!F!1!c]4 [!4!F,!2!F!1!A]4 | %3
 [!4!G,!2!D!1!_B]4 !2!E4 | [!4!F,!2!F!1!A]4 [!2!F!1!A]2 !4!F,2 | %5
 [!5!C,!2!E!1!G]4 [!4!F,!2!F!1!A]4 | [!4!G,!2!D!1!_B]2 !4!F,2 [!4!G,!2!D!1!B]4 | %7
 [!5!C,!2!E!1!G]2 !2!D2 [!5!C,!2!E!1!c]4 | [!4!F,!2!F!1!A]2 !2!E2 [!3!_B,!2!D]4 | %9
 [!4!A,!3!C!2!F]4 [!4!_B,!2!F!1!d]4 | [!4!A,!2!F!1!c]4 [!4!F,!2!F!1!A]4 | %11
 [!4!G,!2!D!1!_B]2 !3!C2 !2!D2 !2!E2 | [!4!F,!2!F!1!A]2 !1!G2 !1!A2 !2!F2 | %13
 [!5!C,!2!E!1!G]4 [!4!F,!2!F!1!A]4 | [!4!G,!2!D!1!_B]2 !1!A2 [!4!G,!2!D!1!B]4 | %15
 [!5!C,!2!E!1!G]2 !2!D2 [!2!E!1!c]4 | [!4!F,!2!F!1!A]2 !1!G2 !2!F2 !2!E2 | %17
 [!4!F,!3!C!2!F]2 !1!G2 !1!A2 !2!F2 | [!5!C,!2!E!1!G]4 !3!C2 !2!D2 | %19
 [!5!C,!2!E!1!G]2 !2!E2 !2!F2 !1!G2 | [!4!F,!2!F!1!A]2 !1!c2 [!4!F,!1!_B]2 !1!A2 | %21
 [!4!F,!1!G]2 !2!F2 !2!E2 !2!D2 | [!5!C,!2!E!1!G]4 !2!F4 | [!5!C,!1!G]2 !2!E2 !2!F !2!E !2!D !2!E | %24
 [!4!F,!3!C!2!F]2 !2!E2 !2!D2 !3!C2 | !3!_B,2 !3!A,2 !4!G,2 !4!F,2 | %26
 [!5!C,!2!E!1!G]2 !1!A2 !1!_B2 !1!G2 | [!4!F,!2!F!1!A]2 !1!G2 !2!F2 !2!E2 | %28
 [!6!_B,,!4!F,!2!D]2 !2!E2 [!5!D,!2!F]4 | !5!C,2 [!3!C!2!F]2 !2!E2 !2!D2 | %30
 [!5!C,!4!G,!3!C!2!E]2 !2!F4 !2!E2 | [!4!F,!3!C!2!F]6 !4!F,2 | [!3!C!2!F]4 !4!F,4 | %33
 [!4!F,!2!F!1!A]2 !1!G2 !1!A2 !1!_B2 | [!4!F,!1!c]4 !1!_B2 !1!A2 | %35
 [!4!F,!1!_B]2 !1!A2 !1!B2 !1!c2 | [!4!F,!1!d]4 !1!c2 !1!_B2 | [!4!F,!1!A]2 !1!_B2 !1!c2 !1!A2 | %38
 [!4!F,!1!_B]2 !1!A2 !1!G2 !2!F2 | [!5!C,!2!E!1!G]6 !5!C,2 | [!2!E!1!G]4 !5!C,4 | %41
 [!4!F,!2!F!1!A]2 !1!G2 !1!A2 !1!_B2 | [!4!F,!1!c]4 !1!_B2 !1!A2 | %43
 [!4!F,!1!_B]2 !1!A2 !1!B2 !1!c2 | [!4!F,!1!d]4 !1!c2 !1!_B2 | [!4!F,!1!A]2 !1!G2 !1!A2 !2!F2 | %46
 [!5!C,!1!G]2 !2!F2 !1!G2 !2!E2 | [!4!F,!3!C!2!F]6 !4!F,2 | [!3!C!2!F]4 !1!_B4 | [!4!F,!2!F!1!A]8 | %50
 [!5!C,!2!E!1!G]8 | !4!F,4 !2!F4 | !3!C4 !1!_B4 | [!4!F,!2!F!1!A]8 | [!5!C,!2!E!1!G]8 | %55
 !4!F,4 !2!F4 | !3!C4 !1!_B4 | [!4!F,!2!F!1!A]4 !1!B !1!A !1!G !1!A | %58
 [!4!G,!2!D!1!B]2 !4!F,2 !5!_E,2 !5!D,2 | !5!C,4 [!2!E!1!c]4 | [!4!G,!2!D!1!_B]4 [!4!F,!1!A]4 | %61
 [!4!G,!2!D!1!_B]8 | [!5!C,!2!E!1!G]8 | !4!F,4 !2!F4 | !3!C4 !4!F,4 | %65
 !6!_B,, !3!C !2!D !2!E !2!F4 | !5!C, !2!D !2!E !2!F !2!E4 | !4!F,4 !2!F4 | !3!C4 !4!F,4 | %69
 !6!_B,, !3!C !2!D !2!E !2!F4 | !5!C, !2!D !2!E !2!F [!5!C,!2!E]4 | %71
 [!4!F,!2!F!1!A]2 !1!_B2 !1!c2 !1!B2 | [!4!F,!1!A]2 !1!G2 !2!F2 !2!E2 | %73
 [!6!_B,,!4!F,!2!D]2 !2!E2 !2!F2 !2!D2 | !5!C,2 [!4!G,!3!C!2!E]2 !2!F !2!E !2!D !2!E | %75
 [!4!F,!3!C!2!F]6 !4!F,2 | [!3!C!2!F]4 [!4!_B,!2!F!1!d]4 | [!4!A,!2!F!1!c]4 [!4!F,!2!A!1!f]4 | %78
 [!5!C,!2!G!1!e]2 !1!d2 !1!c2 !2!_B2 | [!4!F,!3!C!2!A]4 [!2!A!1!c]4 | %80
 [!4!F,!2!G!1!_B]2 [!2!F!1!A]2 [!2!E!1!G]2 [!3!D!2!F]2 | !5!C,2 [!2!E!1!G]2 !3!D2 !2!F2 | %82
 [!5!C,!1!G]2 !2!E2 !2!F !2!E !2!D !2!E | [!4!F,!2!F!1!A]2 !2!E2 !2!F2 !1!G2 | %84
 [!4!F,!1!A]2 !1!B2 !1!c2 !1!d2 | [!4!F,!2!A!1!c]2 !2!G2 !2!A2 !2!F2 | %86
 [!4!F,!2!A!1!c]2 !2!G2 !2!A2 !2!F2 | [!4!F,!2!G!1!_B]2 !2!F !2!G !2!F !2!G !2!E2 | %88
 [!4!F,!2!F!1!A]2 !1!G2 !2!F2 !2!E2 | [!5!D,!3!A,!2!F]2 !2!D2 !2!E2 !2!F2 | %90
 [!5!C,!4!G,!3!C!2!E!1!G]4 [!5!D,!4!F,!3!A,!2!F]4 | %91
 [!5!C,!4!G,!3!C!2!F]2 !2!E2 !2!F !2!E !2!D !2!E | [!4!F,!3!C!2!F]6 !4!F,2 | %93
 [!3!C!2!F]4 [!6!_B,,!4!F,!2!D]4 | [!6!A,,!4!F,!3!C]4 !3!_B,2 !3!A,2 | %95
 [!6!G,,!4!G,!3!_B,]2 !3!C2 !2!D2 !2!E2 | [!4!F,!2!F!1!A]4 !1!d2 !1!c2 | !1!_B2 !1!A2 !1!G2 !2!F2 | %98
 !5!C,2 [!2!E!1!G]2 !3!D2 !2!F2 | [!5!C,!1!G]2 !2!E2 !2!F !2!E !2!D !2!E | %100
 [!5!C,!2!F!1!A]2 !2!E2 !2!F2 !2!E2 | [!4!F,!2!F!1!A]2 !2!D2 !2!E2 !2!F2 | %102
 [!5!C,!2!E!1!G]2 !1!A2 !1!G2 !2!F2 | !1!G2 !2!E2 !2!F2 !1!G2 | %104
 [!4!F,!2!F!1!A]2 !1!G2 !1!_B2 !1!A2 | [!4!F,!1!G]2 !2!F2 !2!E2 !2!D2 | %106
 [!5!C,!2!E!1!G]2 !2!F2 !1!G2 !2!F2 | [!5!C,!2!F!1!G]2 !2!E2 !2!F !2!E !2!D !2!E | %108
 [!4!F,!3!C!2!F]2 !2!E2 !2!F2 !2!E2 | [!4!F,!2!D]2 !2!E2 !2!F2 !2!D2 | %110
 [!5!C,!2!E]2 !2!F2 !1!G2 !2!F2 | [!5!C,!2!E]2 !2!D2 !3!C2 !3!_B,2 | %112
 [!4!F,!3!A,]2 !3!_B,2 !3!C !3!B, !3!C2 | !3!_B,2 !3!A,2 !4!G,2 !4!F,2 | %114
 [!5!C,!4!G,!3!C!2!E]2 !2!D2 [!5!D,!4!F,!3!A,!2!F]4 | [!5!C,!4!G,!3!C!2!F]4 [!3!C!2!E]4 | %116
 [!4!F,!3!C!2!F]8 |] %117

